!!!COM: Bach, Johann Sebastian
!!!CDT: 1685/3//-1750/7/28/
!!!OTL@@DE: Wo Gott der Herr nicht bei uns haelt
!!!AGN: 4-Part Chorale
!!!SCT: BH 336
!!!SCT: BWV 258
**harm	**root	**kern	**kern	**kern	**kern
!	!	!bass	!tenor	!alto	!soprno
*	*Iorgan	*Iorgan	*Iorgan	*Iorgan	*Iorgan
*	*	*clefF4	*clefF2	*clefG2	*clefG2
*M4/4	*M4/4	*M4/4	*M4/4	*M4/4	*M4/4
*met(c)	*met(c)	*met(c)	*met(c)	*met(c)	*met(c)
*MM60	*MM60	*MM60	*MM60	*MM60	*MM60
*k[f#c#]	*k[f#c#]	*k[f#c#]	*k[f#c#]	*k[f#c#]	*k[f#c#]
*b:	*b:	*b:	*b:	*b:	*b:
*>[A,A,B]	*>[A,A,B]	*>[A,A,B]	*>[A,A,B]	*>[A,A,B]	*>[A,A,B]
*>A	*>A	*>A	*>A	*>A	*>A
i	4BB	4B	4d	8f#	4dd
.	.	.	.	8g	.
=1	=1	=1	=1	=1	=1
IIIb	4DD	4F#	4d	4a	4dd
VI	4GG	4G	4d	4g	8b
.	.	.	.	.	8cc#
IIIb	4DD	8F#	4d	4a	8dd
.	.	8E	.	.	8ee
III	4DD	4D	4d	4a	4ff#
=2	=2	=2	=2	=2	=2
V7b/-VII	4EE	4G#	4d	4b	4ee
V7/III	4AA	4A	4c#	8a	4ee
.	.	.	.	8g	.
III;	4DD;	4D;	4A;	4f#;	4dd;
viiob/-VII	4GG#	4BB	4B	4g#	4dd
=3	=3	=3	=3	=3	=3
-VII	4AA	4AA	4e	4a	4cc#
iv	4EE	4E	4e	4gn	8b
.	.	.	.	.	8cc#
i	4BB	8B	8d	4f#	4dd
.	.	8A	8c#	.	.
iv	8EE	8G	4B	8e	8ee
ic	8BB	8F#	.	8f#	8dd
=4	=4	=4	=4	=4	=4
ii7Db	4CC#	4E	4B	4g	2cc#
V7	4FF#	4F#	8A#	4f#	.
.	.	.	8e	.	.
i	4BB	4BB;	4d;	4f#;	4b;
=:|!	=:|!	=:|!	=:|!	=:|!	=:|!
*>B	*>B	*>B	*>B	*>B	*>B
-VIIb	4AA	4C#	4An	4a	4ee
=5	=5	=5	=5	=5	=5
III	2DD	8D	4A	4a	4ff#
.	.	8E	.	.	.
.	.	8F#	8A	4a	4ff#
.	.	8G	8B	.	.
-VII	4AA	4A	4c#	8e	8cc#
.	.	.	.	8f#	8dd
vii7o	4AA#	4A#	4c#	4g	4ee
!!linebreak: 2
=6	=6	=6	=6	=6	=6
i	4BB	4B	8d	4f#	4dd
.	.	.	8c#	.	.
vii7o/V	4EE#	4E#	4B	4g#	4dd
V	4FF#	4F#;	4f#;	4a#;	4cc#;
i	4BB	8B	4f#	4b	4dd
.	.	8A	.	.	.
=7	=7	=7	=7	=7	=7
V/-VII	2EE	8G#	4B	8b	4ee
.	.	8F#	.	8a	.
.	.	4E	4e	4g#	8b
.	.	.	.	.	8cc#
III	4DD	8F#	8A	4f#	4dd
.	.	8G#	8B	.	.
-VII	4AA	4A	4c#	4e	4cc#
=8	=8	=8	=8	=8	=8
V7b/IV	4BB	4D#	4f#	4a	4b
V7/-VII	4EE	4E	8e	4g#	4b
.	.	.	8d	.	.
-VII	4AA	4AA;	4c#;	4e;	4a;
viiob/-VII	4GG#	4BB	4d	4g#	4dd
=9	=9	=9	=9	=9	=9
-VIIb	4AA	8C#	4e	4a	4cc#
.	.	8D	.	.	.
V/-VII	4EE	4E	4e	8g#	8b
.	.	.	.	8a#	8cc#
i	4BB	8B	4f#	4b	4dd
.	.	8An	.	.	.
iv	8EE	8Gn	4B	8b	8ee
ic	8BB	8F#	.	8f#	8dd
=10	=10	=10	=10	=10	=10
ii7Db	4CC#	4E	4B	4gn	2cc#
V7	4FF#	4F#	4A#	8f#	.
.	.	.	.	8e	.
i;	4BB;	4BB;	4F#;	4d;	4b;
==	==	==	==	==	==
*-	*-	*-	*-	*-	*-
!!chor2scor: -l 2 -s 0.6 -o %b.pmx
!!!YEC: Copyright 2003 by Craig Stuart Sapp
!!!license: GNU General Public License (http://www.gnu.org/copyleft/gpl.html)
!!!SMA: 371 Bach Chorales, edited by Ludwig Erk, C.F. Peters
!!!PDT: 1850, 1865
!!!ONB: Harmony and Root analysis done manually by Craig Sapp
